app/client/src/assets/icons/blueprintjs/20px/inbox-filtered.svg

<?xml version="1.0" encoding="UTF-8"?>
<svg width="20px" height="20px" viewBox="0 0 20 20" version="1.1" xmlns="http://www.w3.org/2000/svg" xmlns:xlink="http://www.w3.org/1999/xlink">
    <!-- Generator: Sketch 52.6 (67491) - http://www.bohemiancoding.com/sketch -->
    <title>Artboard</title>
    <desc>Created with Sketch.</desc>
    <g id="Artboard" stroke="none" stroke-width="1" fill="none" fill-rule="evenodd">
        <g id="inbox-filtered" fill="#000000" fill-rule="nonzero">
            <path d="M10.2615729,3 L12.22,4.95842712 L12.22,5.00866089 L4.65,5.00866089 L1.98,11.0046636 L5,11.0046636 C5.55,11.0046636 6,11.4543638 6,12.0039973 L6,13.0033311 L14,13.0033311 L14,12.0039973 C14,11.4543638 14.45,11.0046636 15,11.0046636 L18.02,11.0046636 L17.3848888,9.57839827 L18.0097056,8.94870012 C18.3635034,8.59491781 18.6080478,8.1478556 18.7166077,7.65926107 L20,10.54497 L20,17.0006662 C20,17.5502998 19.55,18 19,18 L1,18 C0.45,18 0,17.5502998 0,17.0006662 L0,10.54497 L3.08,3.61958694 L3.09,3.59960027 C3.24,3.24983344 3.59,3 4,3 L10.2615729,3 Z M19.35,0 C19.71,0 20,0.29 20,0.64 C20,0.82 19.93,0.98 19.81,1.1 L16.78,4.13 L16.78,7.08 C16.78,7.26 16.71,7.42 16.59,7.54 L15.31,8.83 C15.2,8.93 15.04,9 14.86,9 C14.51,9 14.22,8.71 14.22,8.36 L14.22,4.13 L11.19,1.1 C11.07,0.98 11,0.82 11,0.64 C11,0.29 11.29,0 11.64,0 L19.35,0 Z" id="Shape"></path>
        </g>
    </g>
</svg>

<svg xmlns="http://www.w3.org/2000/svg" width="20" height="20"><path fill-rule="nonzero" d="m10.262 3 1.958 1.958v.05H4.65l-2.67 5.997H5c.55 0 1 .45 1 .999v1h8v-1c0-.55.45-1 1-1h3.02l-.635-1.426.625-.63c.354-.353.598-.8.707-1.289L20 10.545v6.456c0 .55-.45.999-1 .999H1c-.55 0-1-.45-1-1v-6.455L3.08 3.62l.01-.02c.15-.35.5-.6.91-.6h6.262Zm9.088-3a.642.642 0 0 1 .46 1.1l-3.03 3.03v2.95c0 .18-.07.34-.19.46l-1.28 1.29c-.11.1-.27.17-.45.17-.35 0-.64-.29-.64-.64V4.13L11.19 1.1a.642.642 0 0 1 .45-1.1h7.71Z"/></svg>
